X:1
T:Title
%%score 1 2
L:1/8
Q:1/4=100
M:4/4
K:C
V:1 treble nm="Violin, SOPRANO ALTO"
V:2 bass nm="Violin, TENOR BASS"
V:1
 z4 z2 [EG]>[DF] | [CE]>[EG] [Ec]>[Fd] [Ge]2 [Gd]>[Gc] | [FA]>[GB] [Ac]>[FA] [EG]2 [EG]>[DF] | %3
 [CE]>[DF] [EG]>[EG] [Gc]>[Gc] [^Fd]>[Fe] | [Gd]6 [EG]>[DF] | [CE]>[EG] [Ec]>[Fd] [Ge]2 [Gd]>[Gc] | %6
 [FA]>[GB] [Ac]>[FA] [EG]2 [EG]>[DF] | [CE]>[DF] [EG]>[CG] [Ec]>[Ec] [Fd]>[FB] | [Ec]6 z2 | %9
 [FA]>[FA] [FA]>[FA] [FA]>[GB] [Ac]>[FA] | [EG]>[EG] [EG]>[CE] [EG]4 | %11
 [FB]>[FB] [FB]>[FB] [FB]>[FB] [FA]>[FB] | [Ec]>[Ec] [Ec]>[Fd] [Ec]4 | %13
 [Ge]>[Ge] [Ge]>[Ge] [Ge]>[Ge] [Gd]>[Gc] | [FA]>[GB] [Ac]>[FA] [EG]4 | %15
 [FB]>[FB] [FB]>[FB] [FB]>[FB] [FA]>[FB] | [Ec]>[Ec] [Ec]>[Fd] [Ec]2[Q:1/4=100] z2[Q:1/4=12] |] %17
V:2
 z4 z2 [C,G,]>[C,G,] | [C,G,]>[C,G,] [C,G,]>[C,G,] [C,C]2 [D,B,]>[E,C] | %2
 [F,C]>[F,C] [F,C]>[F,C] [C,C]2 [C,G,]>[C,G,] | [C,G,]>[C,G,] [C,C]>[C,C] [E,C]>[E,C] [D,C]>[D,C] | %4
 [G,B,]6 [C,G,]>[C,G,] | [C,G,]>[C,G,] [C,G,]>[C,G,] [C,C]2 [D,B,]>[E,C] | %6
 [F,C]>[F,C] [F,C]>[F,C] [C,C]2 [C,G,]>[C,G,] | [C,G,]>[C,G,] [C,C]>[E,C] G,>G, G,>G, | %8
 [C,G,]6 z2 | [F,C]>[F,C] [F,C]>[F,C] [F,C]>[F,C] [F,C]>[F,C] | [C,C]>[C,C] [C,C]>[C,G,] [C,C]4 | %11
 G,>G, G,>G, [G,,G,]>[G,,G,] [G,,G,]>[G,,G,] | [C,G,]>[C,G,] [C,G,]>[C,G,] [C,G,]4 | %13
 [C,C]>[C,C] [C,C]>[C,C] [C,C]>[C,C] [D,B,]>[E,C] | [F,C]>[F,C] [F,C]>[F,C] [C,C]4 | %15
 G,>G, G,>G, [G,,G,]>[G,,G,] [G,,G,]>[G,,G,] | [C,G,]>[C,G,] [C,G,]>[C,G,] [C,G,]2 z2 |] %17

